!!!!SEGMENT: pl-kk--kk-i-382--068_anonim-offertorium-nro-9.krn
!!!id: 18xx:1570
!!!COM: Anonim
!!!OTL: Offertorium Nro 9
!!!PDT:
!!!SMS-siglum: PL-Kk
!!!SMS-shelfmark: Kk.I.382
!!!NIFC-rismID: 1001141102
!!!URL-scan: http://repozytorium.nifc.pl/skany/pl-kk-nut--i-382
!!!ONB-nifc: UWAGA: Offertoria od skanu 0041 (S/T1), 0113 (T2), 0185 (A/B1), 0262 (B2)
!!!SMS-variant:
!!!SMS-altvar:
**kern	**text	**kern	**text	**kern	**text	**kern	**text
*part4	*part4	*part3	*part3	*part2	*part2	*part1	*part1
*group1	*	*group1	*	*group1	*	*group1	*
*staff4	*staff4	*staff3	*staff3	*staff2	*staff2	*staff1	*staff1
*I"Basso II	*	*I"Tenore II	*	*I"Alto vel Basso I	*	*I"Soprano vel Tenore I.	*
*I'B II	*	*I'T II	*	*I'A vel B I	*	*I'S vel T I	*
*clefF4	*	*clefC4	*	*clefC3	*	*clefC1	*
*k[b-e-]	*	*k[b-e-]	*	*k[b-]	*	*k[b-e-]	*
*M3/2	*	*M3/2	*	*M3/2	*	*M3/4	*
=1	=1	=1	=1	=1	=1	=1	=1
*all\right	*	*all\right	*	*all\right	*	*all\right	*
*	*	*	*	*	*	*rscale:1/2	*
*	*	*	*	*	*	*2\right	*
!LO:TX:a:t=Omni Die in Gmol.	!	!	!	!LO:TX:t=P:problem:przy kluczu e- dopisane ołówkiem	!	!	!
!	!	!	!	!LO:TX:t=P:problem:pod pięciolinią dopisane ołówkiem "G mol."	!	!	!
1G	Om-	1B-	Om-	1d	Om-	1g	Om-
*2\right	*	*2\right	*	*2\right	*	*	*
2F\	-ni	2c\	-ni	2f\	-ni	2a\	-ni
=2	=2	=2	=2	=2	=2	=2	=2
1B-	di-	1d	di-	1f	di-	1b-	di-
2B-\	-e	2d\	-e	2f\	-e	2b-\	-e
=3	=3	=3	=3	=3	=3	=3	=3
1F	dic	1c	dic	1f	dic	1a	dic
2G\	Ma-	2B-\	Ma-	2d\	Ma-	2g\	Ma-
=4	=4	=4	=4	=4	=4	=4	=4
1D	-ri-	1A	-ri-	1d	-ri-	1g	-ri-
!LO:SIC:v:l:s=-ae	!	!LO:SIC:v:l:s=-ae	!	!LO:SIC:v:l:s=-ae	!	!LO:SIC:v:l:s=-ae	!
2D\	-e	2A\	-e	2d\	-e	2f#X\	-e
=5	=5	=5	=5	=5	=5	=5	=5
1BB-	me-	1d	me-	1f	me-	1b-	me-
2E-X\	-a	2B-\	-a	2g\	-a	2g\	-a
!	!	!	!	!	!	!LO:LB:g=original	!
=6	=6	=6	=6	=6	=6	=6	=6
1C	lau-	1e-X	lau-	1g	lau-	1cc	lau-
2D\	-des	2d\	-des	2d\	-des	2b-\	-des
=7	=7	=7	=7	=7	=7	=7	=7
(2E-X\	a-	(2d\	a-	1f	a-	1b-	A-
2.F\)	.	2.c\)	.	.	.	.	.
.	.	.	.	2f\	-ni-	2a\	-ni-
4FF/	-ni-	4c\	-ni-	.	.	.	.
=8	=8	=8	=8	=8	=8	=8	=8
1.BB-	-ma.	1.B-	-ma	1.d	-ma.	1.b-	-ma,
!LO:LB:g=original	!	!LO:LB:g=original	!	!LO:LB:g=original	!	!	!
=9	=9	=9	=9	=9	=9	=9	=9
1B-	e-	1d	e-	1f	e-	1b-	e-
2B-\	-ius	2d\	-jus	2f\	-ius	2b-\	-jus
=10	=10	=10	=10	=10	=10	=10	=10
1F	fe-	1c	fe-	1f	fe-	1b-	fe-
2F\	-sta	2c\	-sta	2f\	-sta	2a\	-sta
=11	=11	=11	=11	=11	=11	=11	=11
1G	e-	1B-	e-	1d	e-	2a\	e-
.	.	.	.	.	.	1g	-jus
2G\	-ius	2B-\	-jus	2g\	-ius	.	.
=12	=12	=12	=12	=12	=12	=12	=12
1D	ge-	1A	ge-	1g	ge-	1dd	ge-
2D\	-sta	2A\	-sta	2f#X\	-sta	2dd\	-sta
!	!	!	!	!	!	!LO:LB:g=original	!
=13	=13	=13	=13	=13	=13	=13	=13
2.G\	col-	2.B-\	co-	2.g\	co-	2.dd\	co-
4G\	-le	4c\	-le	4a\	-le	4cc\	-le
2G\	de-	2d\	de-	2b-\	de-	2b-\	de-
=14	=14	=14	=14	=14	=14	=14	=14
2C/	-vo-	(4c\	-vo-	(4a\	-vo-	2ee-\	-vo-
.	.	4B-\)	.	4g\)	.	.	.
!LO:SIC:v:l:s=-tis	!	!	!	!LO:SIC:v:l:s=-tis	!	!	!
2.D\	-ti-	2.A\	-tiſ-	2g\	-ti-	2.dd\	-tis-
.	.	.	.	2f#X\	-si-	.	.
4D\	-si-	4A\	-si-	.	.	4cc\	-si-
=15	=15	=15	=15	=15	=15	=15	=15
1.GG	-ma.	1.G	-ma	1.g	-ma.	1.bn	-ma.
*	*	*	*	*	*	*rscale:1	*
!LO:LB:g=original	!	!	!	!LO:LB:g=original	!	!	!
=16|!	=16|!	=16|!	=16|!	=16|!	=16|!	=16|!	=16|!
*M4/4	*	*M4/4	*	*M4/4	*	*M4/4	*
*met(C.)	*	*met(C.)	*	*met(C.)	*	*met(C.)	*
4E-\	Con-	4B-\	Con-	4g\	Con-	4g\	Con-
4D\	-tem-	4B-\	-tem-	4fn\	-tem-	4b-X\	-tem-
4E-\	-pla-	4B-\	-pla-	4g\	-pla-	4g\	-pla-
4BB-/	-re	4B-\	-re	4f\	-re	4b-\	-re
!	!	!LO:LB:g=original	!	!	!	!	!
=17	=17	=17	=17	=17	=17	=17	=17
4F\	et	4c\	et	4f\	et	4an\	et
4En\	mi-	4c\	mi-	4c\	mi-	4g\	mi-
4F\	-ra-	4c\	-ra-	4f\	-ra-	4a\	-ra-
4C/	-re	4c\	-re	4en\	-re	4g\	-re
!	!	!	!	!	!	!LO:LB:g=original	!
=18	=18	=18	=18	=18	=18	=18	=18
4G\	e-	4d\	e-	4d\	e-	4b-\	e-
4F#X\	-ius	4d\	-jus	4f#X\	-ius	4a\	-jus
4G\	cel-	4d\	cel-	4d\	cel-	4b-\	cel-
4C/	-si-	4e-X\	-si-	4g\	-si-	4cc\	-si-
=19	=19	=19	=19	=19	=19	=19	=19
4.D\	-tu-	4.d\	-tu-	4.g\	-tu-	4.a\	-tu-
8D\	-di-	8d\	-di-	8f#X\	-di-	8a\	-di-
2GG/	-nem	2d\	-nem	2g\	-nem	2g\	-nem
!	!	!	!	!LO:LB:g=original	!	!	!
=20	=20	=20	=20	=20	=20	=20	=20
(8C/L	dic	4e-\	dic	4g\	dic	4g\	dic
8D/J)	.	.	.	.	.	.	.
(8E-X\L	fe-	4e-\	fe-	4g\	fe-	4cc\	fe-
8F\J)	.	.	.	.	.	.	.
4G\	-li-	4d\	-li-	4g\	-li-	4cc\	-li-
4G\	-cem	4d\	-ceum	4g\	-ceum	4bn\	-cem
!LO:LB:g=original	!	!	!	!	!	!	!
=21	=21	=21	=21	=21	=21	=21	=21
(8E-\L	ge-	4e-\	ge-	4g\	ge-	4b-X\	ge-
8F\J)	.	.	.	.	.	.	.
(8G\L	-ni-	4e-\	-ni-	4g\	-ni-	4ee-X\	-ni-
8A-X\J)	.	.	.	.	.	.	.
4B-\	-tri-	4B-\	-tri-	4g\	-tri-	4ee-\	-tri-
!	!	!	!	!	!	!LO:TX:a:t=V&colon;S&colon;	!
4BB-/	-cem	4B-\	-cem	4fn\	-cem	4dd\	-cem,
!	!	!LO:LB:g=original	!	!	!	!LO:PB:g=original	!
=22	=22	=22	=22	=22	=22	=22	=22
4G\	dic	4B-\	dic	4g\	dic	4ee-\	dic
4G\	be-	4B-\	be-	4g\	be-	4ee-\	be-
4A-X\	-a-	(8c\L	-a-	4e-X\	-a-	4cc\	-a-
.	.	8d\J)	.	.	.	.	.
4A-\	-tam	4e-\	-tam	4a-X\	-tam	4cc\	-tam
=23	=23	=23	=23	=23	=23	=23	=23
4.B-\	vir-	4.e-\	vir-	4.f\	vir-	4.b-\	vir-
8BB-/	-gi-	8d\	-gi-	8f\	-gi-	8b-\	-gi-
2E-X\	-nem	2e-\	-nem	2g\	-nem	2b-\	-nem
!	!	!	!	!LO:LB:g=original	!	!	!
=24	=24	=24	=24	=24	=24	=24	=24
4D\	dic	4B-\	dic	4f\	dic	4dd\	dic
4D\	be-	4f\	be-	4f\	be-	4dd\	be-
4E-\	-a-	4e-\	-a-	4g\	-a-	4cc\	-a-
4E-\	-tam	(8e-\L	-tam	(8g\L	-tam	4b-\	-tam
.	.	8d\J)	.	8f\J)	.	.	.
=25	=25	=25	=25	=25	=25	=25	=25
4.F\	vir-	4.c\	vir-	4.f\	vir-	4.b-\	vir-
8FF/	-gi-	8c\	-gi-	8f\	-gi-	8a\	-gi-
!	!	!	!	!LO:TX:a:t=V&colon; S&colon;	!	!	!
2BB-/	-nem.	2d\	-nem.	2f\	-nem	2b-\	-nem.
!LO:LB:g=original	!	!	!	!LO:PB:g=original	!LO:LB:g=original	!	!
=26|!	=26|!	=26|!	=26|!	=26|!	=26|!	=26|!	=26|!
*M3/2	*	*M3/2	*	*M3/2	*	*M3/4	*
*	*	*	*	*	*	*rscale:1/2	*
1G	Ip-	1B-	Ip-	1d	Ip-	1g	Ip-
2F\	-sam	2c\	-sam	2f\	-sam	2a\	-sam
!	!	!LO:LB:g=original	!	!	!	!	!
=27	=27	=27	=27	=27	=27	=27	=27
1B-	col-	1d	co-	1f	col-	1b-	co-
2B-\	-le	2d\	-le	2f\	-le	2b-\	-le
=28	=28	=28	=28	=28	=28	=28	=28
1F	ut	1c	ut	1f	ut	1a	ut
2G\	de	2B-\	de	2d\	de	2g\	de
=29	=29	=29	=29	=29	=29	=29	=29
1D	mo-	1A	mo-	1d	mo-	1g	mo-
2D\	-le	2A\	-le	2d\	-le	2f#X\	-le
=30	=30	=30	=30	=30	=30	=30	=30
1BB-	cri-	1d	cri-	1f	cri-	1b-	cri-
2E-\	-mi-	2B-\	-mi-	2g\	-mi-	2g\	-mi-
=31	=31	=31	=31	=31	=31	=31	=31
1C	-num	1e-	-num	1g	-num	1cc	-num
2D\	te	2d\	te	2d\	te	2b-\	te
!	!	!	!	!	!	!LO:LB:g=original	!
=32	=32	=32	=32	=32	=32	=32	=32
(2E-\	li-	(2d\	li-	1f	li-	1b-	li-
2.F\)	.	2.c\)	.	.	.	.	.
.	.	.	.	2f\	-be-	2a\	-be-
4FF/	-be-	4c\	-be-	.	.	.	.
=33	=33	=33	=33	=33	=33	=33	=33
1.BB-	-ret.	1.B-	-ret	1.d	-ret	1.b-	-ret
!LO:LB:g=original	!	!	!	!LO:LB:g=original	!	!	!
=34	=34	=34	=34	=34	=34	=34	=34
1B-	hanc	1d	Hanc	1f	hanc	1b-	hanc
2B-\	a-	2d\	a-	2f\	a-	2b-\	a-
!	!	!LO:LB:g=original	!	!	!	!	!
=35	=35	=35	=35	=35	=35	=35	=35
1F	-pel-	1c	-pel-	1f	-pel-	1b-	-pel-
2F\	-la	2c\	-la	2f\	-la	2a\	-la
=36	=36	=36	=36	=36	=36	=36	=36
1G	ne	1B-	ne	1d	ne	2a\	ne
.	.	.	.	.	.	1g	pro-
2G\	pro	2B-\	pro-	2g\	pro-	.	.
=37	=37	=37	=37	=37	=37	=37	=37
1D	cel-	1A	-cel-	1g	-cel-	1dd	-cel-
2D\	-la	2A\	-la	2f#X\	-la	2dd\	-la
!	!	!	!	!	!	!LO:LB:g=original	!
=38	=38	=38	=38	=38	=38	=38	=38
2.G\	vi-	2.B-\	vi-	2.g\	vi-	2.dd\	vi-
4G\	-ti-	4c\	-ti-	4a\	-ti-	4cc\	-ti-
2G\	-o-	2d\	-o-	2b-X\	-o-	2b-\	-o-
=39	=39	=39	=39	=39	=39	=39	=39
2C/	-rum	(4c\	-rum	(4a\	-rum	2ee-\	-rum
.	.	4B-\)	.	4g\)	.	.	.
2.D\	su-	2.A\	su-	2g\	su-	2.dd\	su-
.	.	.	.	2f#X\	-pe-	.	.
4D\	-pe-	4A\	-pe-	.	.	4cc\	-pe-
=40	=40	=40	=40	=40	=40	=40	=40
1.GG	-ret.	1.G	-ret,	1.g	-ret.	1.bn	-ret
*	*	*	*	*	*	*rscale:1	*
!LO:LB:g=original	!	!	!	!LO:LB:g=original	!	!	!
=41|!	=41|!	=41|!	=41|!	=41|!	=41|!	=41|!	=41|!
*M4/4	*	*M4/4	*	*M4/4	*	*M4/4	*
*met(C.)	*	*met(C.)	*	*met(C.)	*	*met(C.)	*
!LO:SIC:v:l:s=haec	!	!LO:SIC:v:l:s=Haec	!	!LO:SIC:v:l:s=haec	!	!LO:SIC:v:l:s=haec	!
4E-\	hec	4B-\	Hec	4g\	hec	4g\	hec
4D\	per-	4B-\	per-	4fn\	per-	4b-X\	per-
4E-\	-so-	4B-\	-so-	4g\	-so-	4g\	-so-
4BB-/	-na	4B-\	-na	4f\	-na	4b-\	-na
!	!	!	!	!	!	!LO:LB:g=original	!
=42	=42	=42	=42	=42	=42	=42	=42
4F\	no-	4c\	no-	4f\	no-	4a\	no-
4En\	-bis	4c\	-bis	4c\	-bis	4g\	-bis
4F\	do-	4c\	do-	4f\	do-	4a\	do-
4C/	-na	4c\	-na	4en\	-na	4g\	-na
=43	=43	=43	=43	=43	=43	=43	=43
4G\	con-	4d\	con-	4d\	con-	4b-X\	con-
4F#X\	-tu-	4d\	-tu-	4f#X\	-tu-	4a\	-tu-
4G\	-lit	4d\	-lit	4d\	-lit	4b-\	-lit
!LO:SIC:v:l:s=coe-	!	!LO:SIC:v:l:s=coe-	!	!LO:SIC:v:l:s=coe-	!	!LO:SIC:v:l:s=coe-	!
4C/	ce-	4e-\	ce-	4g\	ce-	4cc\	ce-
=44	=44	=44	=44	=44	=44	=44	=44
4.D\	-le-	4.d\	-les-	4.g\	-le-	4.a\	-les-
8D\	-sti-	8d\	-ti-	8f#X\	-sti-	8a\	-ti-
2GG/	-a.	2d\	-a	2g\	-a,	2g\	-a
!LO:LB:g=original	!	!	!	!	!	!	!
=45	=45	=45	=45	=45	=45	=45	=45
!LO:SIC:v:l:s=haec	!	!LO:SIC:v:l:s=haec	!	!LO:SIC:v:l:s=haec	!	!LO:SIC:v:l:s=haec	!
(8C/L	hec	4e-\	hec	4g\	hec	4g\	hec
8D/J)	.	.	.	.	.	.	.
(8E-X\L	re-	4e-\	re-	4g\	re-	4cc\	re-
8F\J)	.	.	.	.	.	.	.
4G\	-gi-	4d\	-gi-	4g\	-gi-	4cc\	-gi-
4G\	-na	4d\	-na	4g\	-na	4bn\	-na
!	!	!	!	!	!	!LO:LB:g=original	!
=46	=46	=46	=46	=46	=46	=46	=46
(8E-\L	nos	4e-\	nos	4g\	nos	4b-X\	nos
8F\J)	.	.	.	.	.	.	.
!	!	!	!	!LO:LB:g=original	!	!	!
(8G\L	di-	4e-\	di-	4g\	di-	4ee-X\	di-
8A-X\J)	.	.	.	.	.	.	.
4B-\	-vi-	4B-\	-vi-	4g\	-vi-	4ee-\	-vi-
!	!	!LO:TX:a:t=V&colon;S&colon;	!	!	!	!	!
4BB-/	-na	4B-\	-na	4fn\	-na	4dd\	-na
!	!	!LO:PB:g=original	!	!	!	!	!
=47	=47	=47	=47	=47	=47	=47	=47
4G\	il-	4B-\	il-	4g\	il-	4ee-\	il-
4G\	-lus-	4B-\	-lu-	4g\	-lus-	4ee-\	-lu-
4A-X\	-tra-	(8c\L	-stra-	4e-X\	-tra-	4cc\	-stra-
.	.	8d\J)	.	.	.	.	.
4A-\	-vit	4e-\	-vit	4a-X\	-vit	4cc\	-vit
=48	=48	=48	=48	=48	=48	=48	=48
4.B-\	gra-	4.e-\	gra-	4.f\	gra-	4.b-\	gra-
8BB-/	-ti-	8d\	-ti-	8f\	-ti-	8b-\	-ti-
2E-\	-a	2e-\	-a	2g\	-a	2b-\	-a
!LO:LB:g=original	!	!	!	!	!	!	!
=49	=49	=49	=49	=49	=49	=49	=49
4D\	il-	4B-\	il-	4f\	il-	4dd\	il-
4D\	-lus-	4f\	-lu-	4f\	-lus-	4dd\	-lu-
4E-X\	-tra-	4e-\	-stra-	4g\	-tra-	4cc\	-stra-
4E-\	-vit	(8e-\L	-vit	(8g\L	-vit	4b-X\	-vit
.	.	8d\J)	.	8f\J)	.	.	.
!	!	!	!	!	!	!LO:LB:g=original	!
=50	=50	=50	=50	=50	=50	=50	=50
4.F\	gra-	4.c\	gra-	4.f\	gra-	4.b-\	gra-
8FF/	-ti-	8c\	-ti-	8f\	-ti-	8a\	-ti-
2BB-/	-a.	2d\	-a.	2f\	-a.	2b-\	-a.
==	==	==	==	==	==	==	==
*-	*-	*-	*-	*-	*-	*-	*-
!!!system-decoration: [g1]
!!!ENC: Andrzej Gręziak
!!!END: 2021-01-31
!!!ENC: Andrzej Kubiczek
!!!END: 2021-03-04
